X:1
T:Hilton Lodge
T:Hilton Lodge
T:Niel Gow
C:Niel Gow
L:1/8
Q:1/8=128
M:4/4
K:C
V:1 treble 
V:1
|: e/f/ | g<c g>e f<d de/f/ | g<c g>e c>e g<e | f>d e>c d<D D>E | C>E c>E G3 e/f/ | %5
 g<c g>e f<d de/f/ | g<c g>e c>e g<e | f>d e>c d<D D>E | C>E c>E G3 E | C>E c>E F<D D>E | %10
 C>E c>E G>c E<c | G<c E<c d<D D>E | C>E c>E G3 E | C>E c>E F<D D>E | C>E c>E G>c E<c | %15
 F>d E>c D>d de/f/ | e>c d>B c3 :| %17

